!!!OTL: 1975. Osterlied (Resurrexit verdeutscht).
!!!ARE: Europa, Mitteleuropa, Deutschland
!!!SCT: E1975
!!!TXL: @@DE
!!!YEM: Copyright 1995, estate of Helmut Schaffrath.
**kern	**text
*ICvox	*
*M3/4	*
*mez(3)	*
*k[]	*
*C:	*
!LO:TX:a:t=D. Proteſtant. Text.	!
{4cc	Er-
=1	=1
2cc	-ſtan-
4cc	-den
=2	=2
2b	iſt
4b	der
=3	=3
4cc	hei-
2a	-lig
=4	=4
2g}	Chriſt,
{4g	Al-
=5	=5
2a	-le-
4cc	-lu-
=6	=6
2b	-ja,
4a	al-
=7	=7
2g	-le-
4f	-lu-
=8	=8
2e}	-ja,
{4e	der
=9	=9
2e	al-
4e	-ler
=10	=10
2g	Welt
4g	ein
=11	=11
2e	Trö-
4d	-ſter
=12	=12
2c}	iſt,
{4f	Al-
=13	=13
2e	-le-
4a	-lu-
=14	=14
2g	-ja,
4d	al-
=15	=15
4e	-le-
2d	-lu-
=16	=16
2c}	-ja!
==	==
!!!AGN: geistlich, Fest - Lied, Ostern
!!!ONB: ESAC (Essen Associative Code) Database: ERK3
!!!AMT: simple triple
!!!AIN: vox
!!!EED: Helmut Schaffrath
!!!EEV: 1.0
!!!GTL: Geistliche Lieder. 1. Christliche Festlieder: b) Osterkreis (Passionszeit, Ostern, Himmelfahrt, Pfingsten).
!!!URL-scan: https://rosdok.uni-rostock.de/mcrviewer/recordIdentifier/rosdok_ppn745177999/iview2/phys_0686.iview2?x=188.96815741118007&y=1731.6324693826027&scale=0.7014306698522891&rotation=0&layout=singlePageLayout
!!!ENC: Anna Maria Matuszewska
!!!EEV: 2025/10/01
*-	*-
